v/0.4.11/design-resources/icons/wf_doctype-icons/file-book.svg

<?xml version="1.0" encoding="utf-8"?>
<!-- Generated by IcoMoon.io -->
<!DOCTYPE svg PUBLIC "-//W3C//DTD SVG 1.1//EN" "http://www.w3.org/Graphics/SVG/1.1/DTD/svg11.dtd">
<svg version="1.1" xmlns="http://www.w3.org/2000/svg" xmlns:xlink="http://www.w3.org/1999/xlink" width="512" height="512" viewBox="0 0 512 512">
<g>
</g>
	<path d="M416 0h-352v33.619c-36.471 7.434-64 39.75-64 78.381 0 26.269 12.89 49.41 32.492 64.002-19.602 14.596-32.492 37.738-32.492 63.998 0 26.269 12.89 49.41 32.492 64.002-19.602 14.596-32.492 37.738-32.492 63.998 0 38.644 27.529 70.949 64 78.382v33.618l32 32h320l32-32v-448l-32-32zM64 66.947v90.106c-18.584-6.627-32-24.221-32-45.053s13.416-38.426 32-45.053zM64 194.947v90.106c-18.584-6.627-32-24.221-32-45.053s13.416-38.426 32-45.053zM32 368c0-20.832 13.416-38.426 32-45.053v90.106c-18.584-6.627-32-24.221-32-45.053zM416 448h-320v-125.168c14.531 5.166 26.147 17.111 30.344 32.59 2.313 8.515 11.031 13.64 19.625 11.25 8.531-2.313 13.563-11.094 11.25-19.625-7.978-29.486-32.103-51.257-61.219-57.242v-94.973c14.531 5.166 26.147 17.112 30.344 32.59 2.313 8.516 11.031 13.641 19.625 11.25 8.531-2.313 13.563-11.094 11.25-19.625-7.978-29.487-32.103-51.258-61.219-57.242v-94.973c14.531 5.166 26.147 17.111 30.344 32.59 2.313 8.516 11.031 13.641 19.625 11.25 8.531-2.313 13.563-11.094 11.25-19.625-7.978-29.486-32.103-51.258-61.219-57.242v-1.805h320v416z" fill="#595959"></path>
</svg>

<svg xmlns="http://www.w3.org/2000/svg" width="512" height="512" viewBox="0 0 512 512"><path stroke="#449FDB" d="M0 0"/><path d="M416 0H64v33.62C27.53 41.052 0 73.37 0 112c0 26.27 12.89 49.41 32.492 64.002C12.89 190.598 0 213.74 0 240c0 26.27 12.89 49.41 32.492 64.002C12.89 318.598 0 341.74 0 368c0 38.644 27.53 70.95 64 78.382V480l32 32h320l32-32V32L416 0zM64 66.947v90.106c-18.584-6.627-32-24.22-32-45.053s13.416-38.426 32-45.053zm0 128v90.106c-18.584-6.627-32-24.22-32-45.053s13.416-38.426 32-45.053zM32 368c0-20.832 13.416-38.426 32-45.053v90.106c-18.584-6.627-32-24.22-32-45.053zm384 80H96V322.832c14.53 5.166 26.147 17.11 30.344 32.59 2.313 8.515 11.03 13.64 19.625 11.25 8.53-2.313 13.56-11.094 11.25-19.625-7.98-29.486-32.105-51.257-61.22-57.242v-94.973c14.53 5.166 26.146 17.112 30.343 32.59 2.313 8.516 11.03 13.64 19.625 11.25 8.53-2.313 13.562-11.094 11.25-19.625-7.98-29.487-32.104-51.258-61.22-57.242V66.832c14.53 5.166 26.147 17.11 30.344 32.59 2.313 8.516 11.03 13.64 19.625 11.25 8.53-2.313 13.562-11.094 11.25-19.625C149.24 61.56 125.115 39.79 96 33.805V32h320v416z" fill="#595959"/></svg>
